assets/icon/stats/bombRate.svg

<?xml version="1.0" encoding="iso-8859-1"?>
<!-- Generator: Adobe Illustrator 19.0.0, SVG Export Plug-In . SVG Version: 6.00 Build 0)  -->
<svg version="1.1" id="Capa_1" xmlns="http://www.w3.org/2000/svg" xmlns:xlink="http://www.w3.org/1999/xlink" x="0px" y="0px"
	 viewBox="0 0 414.09 414.09" style="enable-background:new 0 0 414.09 414.09;" xml:space="preserve">
<g>
	<g>
		<path d="M330.645,125.461l-0.16,0.08h-40c-18.053-0.044-32.676-14.667-32.72-32.72v-43.84
			c0.144-26.907-21.551-48.836-48.458-48.981c-25.929-0.139-47.423,20.054-48.902,45.941c-0.013,0.24-0.013,0.48,0,0.72v38h-25.2
			c-8.837,0-16,7.163-16,16v35.44c-74.376,27.018-112.768,109.214-85.75,183.59s109.214,112.768,183.59,85.75
			s112.768-109.214,85.75-183.59c-14.482-39.867-45.883-71.268-85.75-85.75v-35.6c0-8.837-7.163-16-16-16h-24.64v-35.52
			c0-18.093,14.667-32.76,32.76-32.76s32.76,14.667,32.76,32.76v43.76c0.044,26.889,21.831,48.676,48.72,48.72h40
			c4.418,0,8-3.582,8-8S335.063,125.461,330.645,125.461z M295.685,270.421c-0.088,70.295-57.145,127.208-127.44,127.12
			s-127.208-57.145-127.12-127.44c0.088-70.232,57.047-127.12,127.28-127.12C238.725,143.07,295.685,200.101,295.685,270.421z
			 M201.285,100.741v30.32c-21.653-5.306-44.267-5.306-65.92,0v-30.32h32.48h0.72h0.72H201.285z"/>
	</g>
</g>
<g>
	<g>
		<path d="M330.485,74.661c-4.418,0-8,3.582-8,8v25.04c0,4.418,3.582,8,8,8s8-3.582,8-8v-25.04
			C338.485,78.243,334.903,74.661,330.485,74.661z"/>
	</g>
</g>
<g>
	<g>
		<path d="M330.485,150.981c-4.418,0-8,3.582-8,8v25.04c0,4.418,3.582,8,8,8s8-3.582,8-8v-25.04
			C338.485,154.563,334.903,150.981,330.485,150.981z"/>
	</g>
</g>
<g>
	<g>
		<g>
			<path d="M348.885,123.301c-0.027,0-0.053-0.003-0.08-0.004c-0.027,0-0.053,0.004-0.08,0.004H348.885z"/>
			<path d="M371.212,91.701c-2.995-2.565-7.412-2.565-10.407,0l-17.6,17.92c-3.137,3.111-3.158,8.177-0.047,11.314
				c1.495,1.507,3.527,2.354,5.647,2.363c2.097-0.009,4.109-0.838,5.6-2.316l17.68-18C374.959,99.626,374.568,94.575,371.212,91.701
				z"/>
		</g>
	</g>
</g>
<g>
	<g>
		<path d="M372.085,163.701l-17.76-17.6c-2.677-3.515-7.696-4.195-11.211-1.518c-3.515,2.677-4.195,7.696-1.518,11.211
			c0.459,0.602,1.001,1.137,1.609,1.587l17.6,17.6c3.356,2.874,8.406,2.483,11.28-0.873
			C374.65,171.114,374.65,166.696,372.085,163.701z"/>
	</g>
</g>
<g>
	<g>
		<path d="M381.285,125.541h-25.04c-4.418,0-8,3.582-8,8s3.582,8,8,8h25.04c4.418,0,8-3.582,8-8S385.703,125.541,381.285,125.541z"
			/>
	</g>
</g>
<g>
	<g>
		<path d="M153.365,356.981c-40.453-0.044-73.236-32.827-73.28-73.28c0-4.418-3.582-8-8-8s-8,3.582-8,8
			c0.044,49.29,39.99,89.236,89.28,89.28c4.418,0,8-3.582,8-8S157.783,356.981,153.365,356.981z"/>
	</g>
</g>
<g>
</g>
<g>
</g>
<g>
</g>
<g>
</g>
<g>
</g>
<g>
</g>
<g>
</g>
<g>
</g>
<g>
</g>
<g>
</g>
<g>
</g>
<g>
</g>
<g>
</g>
<g>
</g>
<g>
</g>
</svg>

<?xml version="1.0" encoding="UTF-8" standalone="no"?>
<!DOCTYPE svg PUBLIC "-//W3C//DTD SVG 1.1//EN" "http://www.w3.org/Graphics/SVG/1.1/DTD/svg11.dtd">
<svg width="100%" height="100%" viewBox="0 0 415 415" version="1.1" xmlns="http://www.w3.org/2000/svg" xmlns:xlink="http://www.w3.org/1999/xlink" xml:space="preserve" xmlns:serif="http://www.serif.com/" style="fill-rule:evenodd;clip-rule:evenodd;stroke-linejoin:round;stroke-miterlimit:2;">
    <g>
        <g>
            <path d="M330.645,125.461L330.485,125.541L290.485,125.541C272.432,125.497 257.809,110.874 257.765,92.821L257.765,48.981C257.909,22.074 236.214,0.145 209.307,-0C183.378,-0.139 161.884,20.054 160.405,45.941C160.392,46.181 160.392,46.421 160.405,46.661L160.405,84.661L135.205,84.661C126.368,84.661 119.205,91.824 119.205,100.661L119.205,136.101C44.829,163.119 6.437,245.315 33.455,319.691C60.473,394.067 142.669,432.459 217.045,405.441C291.421,378.423 329.813,296.227 302.795,221.851C288.313,181.984 256.912,150.583 217.045,136.101L217.045,100.501C217.045,91.664 209.882,84.501 201.045,84.501L176.405,84.501L176.405,48.981C176.405,30.888 191.072,16.221 209.165,16.221C227.258,16.221 241.925,30.888 241.925,48.981L241.925,92.741C241.969,119.63 263.756,141.417 290.645,141.461L330.645,141.461C335.063,141.461 338.645,137.879 338.645,133.461C338.645,129.043 335.063,125.461 330.645,125.461ZM295.685,270.421C295.597,340.716 238.54,397.629 168.245,397.541C97.95,397.453 41.037,340.396 41.125,270.101C41.213,199.869 98.172,142.981 168.405,142.981C238.725,143.07 295.685,200.101 295.685,270.421ZM201.285,100.741L201.285,131.061C179.632,125.755 157.018,125.755 135.365,131.061L135.365,100.741L201.285,100.741Z" style="fill:white;fill-rule:nonzero;"/>
        </g>
    </g>
    <g>
        <g>
            <path d="M330.485,74.661C326.067,74.661 322.485,78.243 322.485,82.661L322.485,107.701C322.485,112.119 326.067,115.701 330.485,115.701C334.903,115.701 338.485,112.119 338.485,107.701L338.485,82.661C338.485,78.243 334.903,74.661 330.485,74.661Z" style="fill:white;fill-rule:nonzero;"/>
        </g>
    </g>
    <g>
        <g>
            <path d="M330.485,150.981C326.067,150.981 322.485,154.563 322.485,158.981L322.485,184.021C322.485,188.439 326.067,192.021 330.485,192.021C334.903,192.021 338.485,188.439 338.485,184.021L338.485,158.981C338.485,154.563 334.903,150.981 330.485,150.981Z" style="fill:white;fill-rule:nonzero;"/>
        </g>
    </g>
    <g>
        <g>
            <g>
                <path d="M348.885,123.301C348.858,123.301 348.832,123.298 348.805,123.297C348.778,123.297 348.752,123.301 348.725,123.301L348.885,123.301Z" style="fill:white;fill-rule:nonzero;"/>
                <path d="M371.212,91.701C368.217,89.136 363.8,89.136 360.805,91.701L343.205,109.621C340.068,112.732 340.047,117.798 343.158,120.935C344.653,122.442 346.685,123.289 348.805,123.298C350.902,123.289 352.914,122.46 354.405,120.982L372.085,102.982C374.959,99.626 374.568,94.575 371.212,91.701Z" style="fill:white;fill-rule:nonzero;"/>
            </g>
        </g>
    </g>
    <g>
        <g>
            <path d="M372.085,163.701L354.325,146.101C351.648,142.586 346.629,141.906 343.114,144.583C339.599,147.26 338.919,152.279 341.596,155.794C342.055,156.396 342.597,156.931 343.205,157.381L360.805,174.981C364.161,177.855 369.211,177.464 372.085,174.108C374.65,171.114 374.65,166.696 372.085,163.701Z" style="fill:white;fill-rule:nonzero;"/>
        </g>
    </g>
    <g>
        <g>
            <path d="M381.285,125.541L356.245,125.541C351.827,125.541 348.245,129.123 348.245,133.541C348.245,137.959 351.827,141.541 356.245,141.541L381.285,141.541C385.703,141.541 389.285,137.959 389.285,133.541C389.285,129.123 385.703,125.541 381.285,125.541Z" style="fill:white;fill-rule:nonzero;"/>
        </g>
    </g>
    <g>
        <g>
            <path d="M153.365,356.981C112.912,356.937 80.129,324.154 80.085,283.701C80.085,279.283 76.503,275.701 72.085,275.701C67.667,275.701 64.085,279.283 64.085,283.701C64.129,332.991 104.075,372.937 153.365,372.981C157.783,372.981 161.365,369.399 161.365,364.981C161.365,360.563 157.783,356.981 153.365,356.981Z" style="fill:white;fill-rule:nonzero;"/>
        </g>
    </g>
</svg>
